app/img/icons/linkedin-icon-red.svg

<?xml version="1.0" encoding="UTF-8"?>
<svg width="54px" height="54px" viewBox="0 0 54 54" version="1.1" xmlns="http://www.w3.org/2000/svg" xmlns:xlink="http://www.w3.org/1999/xlink">
    <!-- Generator: Sketch 49.3 (51167) - http://www.bohemiancoding.com/sketch -->
    <title>linkedin-icon</title>
    <desc>Created with Sketch.</desc>
    <defs></defs>
    <g id="Symbols" stroke="none" stroke-width="1" fill="none" fill-rule="evenodd">
        <g id="footer-desktop" transform="translate(-745.000000, -16.000000)">
            <g id="footer">
                <g id="Group-7" transform="translate(532.000000, 16.000000)">
                    <g id="linkedin-icon" transform="translate(213.000000, 0.000000)">
                        <path d="M27,0 C12.089249,0 0,12.089249 0,27 C0,41.910751 12.089249,54 27,54 C41.910751,54 54,41.910751 54,27 C54,12.0859184 41.910751,0 27,0 Z" id="Shape" fill="#D53C3C" fill-rule="nonzero"></path>
                        <polygon id="Path" fill="#04030C" points="20.25 40.0781181 13.5 40.0781181 13.5 16.4530626 20.25 16.4530626"></polygon>
                        <path d="M17.0842201,15.0052303 C15.3359636,15.0052303 13.9218819,13.587707 13.9218819,11.8394505 C13.9218819,10.0911939 15.3394053,8.67367062 17.0842201,8.67367062 C18.8324767,8.67700127 20.25,10.0945246 20.25,11.8394505 C20.25,13.587707 18.8324767,15.0052303 17.0842201,15.0052303 Z" id="Path" fill="#04030C"></path>
                        <path d="M43.8749445,40.0781181 L37.1249445,40.0781181 L37.1249445,25.4711221 C37.1249445,23.7599467 36.6355614,22.561913 34.5329241,22.561913 C31.0465139,22.561913 30.3749445,25.4711221 30.3749445,25.4711221 L30.3749445,40.0781181 L23.6249445,40.0781181 L23.6249445,16.4530626 L30.3749445,16.4530626 L30.3749445,18.7109081 C31.340166,17.9718375 33.749889,16.4563932 37.1249445,16.4563932 C39.3119583,16.4563932 43.8749445,17.7658925 43.8749445,25.676845 L43.8749445,40.0781181 Z" id="Path" fill="#04030C"></path>
                    </g>
                </g>
            </g>
        </g>
    </g>
</svg>

<svg width="54" height="54" xmlns="http://www.w3.org/2000/svg"><g fill="none" fill-rule="evenodd"><path d="M27 0C12.09 0 0 12.09 0 27s12.09 27 27 27 27-12.09 27-27C54 12.086 41.91 0 27 0z" fill="#D53C3C" fill-rule="nonzero"/><path fill="#04030C" d="M20.25 40.078H13.5V16.453h6.75zM17.084 15.005a3.163 3.163 0 01-3.162-3.166 3.165 3.165 0 013.162-3.165 3.166 3.166 0 010 6.332zM43.875 40.078h-6.75V25.471c0-1.711-.49-2.91-2.592-2.91-3.486 0-4.158 2.91-4.158 2.91v14.607h-6.75V16.453h6.75v2.258a11.29 11.29 0 016.75-2.255c2.187 0 6.75 1.31 6.75 9.22v14.402z"/></g></svg>
